src/images/logo.svg

<?xml version="1.0" encoding="UTF-8"?>
<svg width="67px" height="32px" viewBox="0 0 67 32" version="1.1" xmlns="http://www.w3.org/2000/svg" xmlns:xlink="http://www.w3.org/1999/xlink">
    <!-- Generator: Sketch 41.2 (35397) - http://www.bohemiancoding.com/sketch -->
    <title>kap-logo</title>
    <desc>Created with Sketch.</desc>
    <defs>
        <linearGradient x1="0%" y1="50%" x2="100%" y2="50%" id="linearGradient-1">
            <stop stop-color="#9300FF" offset="0%"></stop>
            <stop stop-color="#00FFBE" offset="100%"></stop>
        </linearGradient>
    </defs>
    <g id="Landing" stroke="none" stroke-width="1" fill="none" fill-rule="evenodd">
        <g id="Desktop-HD" transform="translate(-249.000000, -24.000000)">
            <g id="Header" transform="translate(-7.000000, -8.000000)">
                <g id="kap-logo" transform="translate(256.000000, 32.000000)">
                    <path d="M16,32 C24.8365714,32 32,24.8365714 32,16 C32,7.16342857 24.8365714,0 16,0 C7.16342857,0 0,7.16342857 0,16 C0,24.8365714 7.16342857,32 16,32" id="Circle" fill="#FFFFFF"></path>
                    <path d="M16,30 C23.7319865,30 30,23.7319865 30,16 C30,8.2680135 23.7319865,2 16,2 C8.2680135,2 2,8.2680135 2,16 C2,23.7319865 8.2680135,30 16,30 Z M16,28 C22.627417,28 28,22.627417 28,16 C28,9.372583 22.627417,4 16,4 C9.372583,4 4,9.372583 4,16 C4,22.627417 9.372583,28 16,28 Z" id="Glyph" fill="url(#linearGradient-1)"></path>
                    <path d="M45.2979592,20.6454352 L42.7080333,16.7983015 L41.8137918,17.7919321 L41.8137918,20.6454352 L40,20.6454352 L40,8 L41.8137918,8 L41.8137918,15.566879 L45.0954894,11.7367304 L47.2382946,11.7367304 L43.8131808,15.566879 L47.4238918,20.6454352 L45.2979592,20.6454352 Z M54.0379046,20.6454352 L54.0379046,19.6348195 C53.6217146,20.0084944 53.1816285,20.3142239 52.7176329,20.552017 C52.2536374,20.7898101 51.748874,20.9087049 51.2033277,20.9087049 C50.7533926,20.9087049 50.3540812,20.840765 50.0053815,20.7048832 C49.6566818,20.5690014 49.3642284,20.3779206 49.1280125,20.1316348 C48.8917966,19.8853491 48.7118252,19.5937738 48.5880931,19.2569002 C48.4643609,18.9200266 48.4024958,18.5477727 48.4024958,18.1401274 C48.4024958,17.602262 48.4910754,17.1521603 48.6682374,16.7898089 C48.8453993,16.4274575 49.0900478,16.131636 49.4021903,15.9023355 C49.7143328,15.6730349 50.0855237,15.5003544 50.5157741,15.3842887 C50.9460245,15.2682231 51.4170432,15.1847136 51.9288444,15.133758 L53.9535422,14.9384289 L53.9535422,14.522293 C53.9535422,14.2278825 53.9099554,13.9830158 53.8227804,13.7876858 C53.7356055,13.5923557 53.6090632,13.4352448 53.4431496,13.3163482 C53.2772361,13.1974516 53.0719562,13.1139422 52.827304,13.0658174 C52.5826518,13.0176926 52.3056647,12.9936306 51.9963343,12.9936306 C51.6982523,12.9936306 51.4381375,13.0219389 51.2159821,13.0785563 C50.9938266,13.1351737 50.801201,13.2087752 50.6380996,13.2993631 C50.4749981,13.3899509 50.3400196,13.4932761 50.23316,13.6093418 C50.1263004,13.7254075 50.0419389,13.8400561 49.9800728,13.9532909 L48.5459119,13.0276008 C48.6527715,12.8351017 48.8004042,12.6468516 48.9888145,12.462845 C49.1772248,12.2788384 49.4120312,12.1146504 49.6932406,11.970276 C49.97445,11.8259016 50.3076782,11.7084223 50.6929351,11.6178344 C51.0781921,11.5272465 51.5239023,11.4819533 52.0300793,11.4819533 C52.64874,11.4819533 53.1914661,11.5329082 53.6582738,11.6348195 C54.1250814,11.7367309 54.5145506,11.9065806 54.8266931,12.1443737 C55.1388356,12.3821668 55.3736419,12.7006349 55.5311192,13.0997877 C55.6885965,13.4989404 55.7673339,13.9957507 55.7673339,14.5902335 L55.7673339,20.6454352 L54.0379046,20.6454352 Z M53.9535422,16.3142251 L52.6881061,16.433121 C52.3000371,16.4670915 51.9555607,16.5208772 51.6546666,16.5944798 C51.3537725,16.6680825 51.1006878,16.7699923 50.8954049,16.9002123 C50.690122,17.0304324 50.5340531,17.193205 50.4271936,17.388535 C50.320334,17.5838651 50.266905,17.8230701 50.266905,18.1061571 C50.266905,18.5760816 50.3906353,18.9087039 50.6380996,19.104034 C50.8855639,19.299364 51.2342583,19.3970276 51.6841934,19.3970276 C51.8585433,19.3970276 52.0399206,19.3658885 52.228331,19.3036093 C52.4167413,19.2413302 52.6079608,19.1592362 52.8019953,19.0573248 C52.9960298,18.9554135 53.1900614,18.8351033 53.3840959,18.6963907 C53.5781304,18.557678 53.767944,18.4118904 53.9535422,18.2590234 L53.9535422,16.3142251 Z M66.2198362,16.1273885 C66.2198362,16.75018 66.152347,17.3503156 66.0173664,17.9278132 C65.8823859,18.5053107 65.671482,19.0148598 65.3846484,19.4564756 C65.0978148,19.8980914 64.7294359,20.2505295 64.2795008,20.5138004 C63.8295658,20.7770714 63.2896517,20.9087049 62.6597426,20.9087049 C62.1816866,20.9087049 61.7345703,20.8251955 61.3183803,20.6581741 C60.9021904,20.4911527 60.5197513,20.2547786 60.1710516,19.9490446 L60.1710516,24 L58.3572598,24 L58.3572598,11.7367304 L60.078253,11.7367304 L60.078253,12.6284501 C60.4494494,12.2887456 60.8642271,12.0127399 61.3225985,11.8004246 C61.7809698,11.5881093 62.2829211,11.4819533 62.8284674,11.4819533 C63.4190072,11.4819533 63.9265827,11.5951864 64.3512089,11.8216561 C64.7758351,12.0481257 65.1273416,12.3651784 65.405739,12.7728238 C65.6841363,13.1804691 65.8894161,13.6702024 66.0215846,14.2420382 C66.153753,14.8138741 66.2198362,15.4423179 66.2198362,16.1273885 L66.2198362,16.1273885 Z M64.3469908,16.1613588 C64.3469908,15.1592307 64.1824857,14.3977379 63.8534707,13.8768577 C63.5244557,13.3559776 63.0393767,13.0955414 62.3982192,13.0955414 C62.1957484,13.0955414 61.9918746,13.1224343 61.7865917,13.1762208 C61.5813088,13.2300073 61.3830591,13.3036089 61.1918367,13.3970276 C61.0006143,13.4904463 60.8178309,13.5980178 60.6434811,13.7197452 C60.4691312,13.8414727 60.3116563,13.9702753 60.1710516,14.1061571 L60.1710516,18.4203822 C60.3060321,18.5392787 60.4536649,18.6510964 60.6139542,18.7558386 C60.7742436,18.8605808 60.9443728,18.9525828 61.1243468,19.0318471 C61.3043208,19.1111115 61.4899163,19.1733897 61.6811387,19.2186837 C61.8723611,19.2639776 62.0663927,19.2866242 62.2632393,19.2866242 C62.5444487,19.2866242 62.8115937,19.2271768 63.0646822,19.1082803 C63.3177707,18.9893837 63.5385168,18.8039645 63.7269271,18.552017 C63.9153374,18.3000695 64.0657822,17.9773551 64.178266,17.5838641 C64.2907497,17.1903731 64.3469908,16.7162094 64.3469908,16.1613588 L64.3469908,16.1613588 Z" id="kap" fill="#FFFFFF"></path>
                </g>
            </g>
        </g>
    </g>
</svg>

<svg width="67" height="32" viewBox="0 0 67 32" xmlns="http://www.w3.org/2000/svg"><title>kap-logo</title><defs><linearGradient x1="0%" y1="50%" y2="50%" id="a"><stop stop-color="#9300FF" offset="0%"/><stop stop-color="#00FFBE" offset="100%"/></linearGradient></defs><g fill="none" fill-rule="evenodd"><path d="M16 32c8.837 0 16-7.163 16-16S24.837 0 16 0 0 7.163 0 16s7.163 16 16 16" fill="#FFF"/><path d="M16 30c7.732 0 14-6.268 14-14S23.732 2 16 2 2 8.268 2 16s6.268 14 14 14zm0-2c6.627 0 12-5.373 12-12S22.627 4 16 4 4 9.373 4 16s5.373 12 12 12z" fill="url(#a)"/><path d="M45.298 20.645l-2.59-3.847-.894.994v2.853H40V8h1.814v7.567l3.28-3.83h2.144l-3.425 3.83 3.61 5.078H45.3zm8.74 0v-1.01c-.416.373-.856.68-1.32.917-.464.238-.97.357-1.515.357-.45 0-.85-.07-1.198-.205-.348-.136-.64-.327-.877-.573-.236-.247-.416-.538-.54-.875-.124-.337-.186-.71-.186-1.117 0-.538.09-.988.266-1.35.177-.363.422-.658.734-.888.312-.23.684-.402 1.114-.518.43-.116.9-.2 1.413-.25l2.024-.196v-.416c0-.294-.044-.54-.13-.734-.088-.196-.215-.353-.38-.472-.167-.12-.372-.202-.617-.25-.244-.048-.52-.072-.83-.072-.3 0-.56.028-.78.085-.223.055-.416.13-.58.22-.162.09-.297.193-.404.31-.107.115-.19.23-.253.343l-1.434-.925c.107-.193.254-.38.443-.565.187-.184.422-.348.703-.493.28-.144.615-.262 1-.352.385-.09.83-.136 1.337-.136.62 0 1.16.05 1.628.153.467.102.857.272 1.17.51.31.237.546.556.703.955.16.4.237.896.237 1.49v6.055h-1.73zm-.084-4.33l-1.266.118c-.388.034-.732.088-1.033.16-.3.075-.554.177-.76.307-.205.13-.36.293-.468.49-.107.194-.16.433-.16.716 0 .47.124.803.37.998.25.195.597.293 1.047.293.175 0 .356-.03.544-.093.19-.063.38-.145.574-.247.194-.102.388-.222.582-.36.194-.14.384-.285.57-.438v-1.946zm12.266-.188c0 .623-.068 1.223-.203 1.8-.135.578-.346 1.088-.632 1.53-.287.44-.656.794-1.105 1.057-.45.263-.99.395-1.62.395-.478 0-.925-.085-1.342-.252-.416-.167-.798-.403-1.147-.71V24h-1.813V11.737h1.72v.89c.372-.338.787-.614 1.246-.827.458-.212.96-.318 1.505-.318.59 0 1.1.113 1.523.34.426.226.777.543 1.056.95.278.408.483.898.616 1.47.132.572.198 1.2.198 1.885zm-1.873.034c0-1-.165-1.762-.494-2.283-.33-.52-.814-.78-1.455-.78-.202 0-.406.025-.61.08-.207.053-.405.127-.596.22-.19.093-.374.2-.55.323-.173.12-.33.25-.47.386v4.314c.134.12.282.23.442.336.16.105.33.197.51.276.18.08.366.14.557.187.192.044.386.067.583.067.28 0 .55-.06.802-.18.253-.118.474-.303.662-.555.188-.252.34-.575.45-.968.114-.394.17-.868.17-1.423z" fill="#FFF"/></g></svg>
